X:1
T:Title
%%score { ( 1 3 ) | 2 }
L:1/8
M:4/4
K:A
V:1 treble nm="Grand Piano"
V:3 treble 
V:2 bass 
V:1
 z4 z2[Q:1/4=100] [CA][DB] | [Ec][Ec][Ec][Ec] [Ec]2 [DB][CA] | B4 B2 GA | BBBB BBAG | A6 [CA][DB] | %5
 [Ec][Ec][Ec][Ec] [Ec]2 [EB][=GA] | [Fd]4 [Fd]2 [FA][DF] | [DF][CE][CA][Ec] cBFG |[M:3/4] [A,CA]6 | %9
[M:1/4] [CEA][CEA] |[M:4/4] AGGG B2 BB | BAAA c2 cc | [Fd][Fd][Fd][Fd] [Ec][DB][CA][Ec] | %13
 [EB]6 z2 | [Ee][Ec][Ec]B A2 c[=Ge] | [Fe][Fd][DF][DF] [FA]2 [EG][DF] | [DF][CE][CA][Ec] cBFG | %17
[M:7/4] [CA]6 z2 z2 z4 |] %18
V:2
 z4 z2 [A,,E,][A,,E,] | [A,,A,][A,,A,][A,,A,][A,,A,] [A,,A,]2 [A,,E,][A,,E,] | %2
 [E,G,E]4 [E,G,E]2 [E,B,E][E,CE] | [E,DE][E,DE][E,DE][E,DE] [E,DE][E,DE][E,CE][E,B,E] | %4
 [A,CE]6 [A,,E,][A,,E,] | [A,,A,][A,,A,][A,,A,][A,,A,] [A,,A,]2 [B,,G,][C,A,] | %6
 [D,A,]4 [D,A,]2 [D,A,][D,A,] | [A,,A,][A,,A,][A,,A,][A,,A,] [E,A,E][E,G,D][E,B,D][E,B,D] | %8
[M:3/4] A,,6 |[M:1/4] A,,A,, |[M:4/4] [E,CE][E,B,E][E,B,E][E,B,E] [E,DE]2 [E,DE][E,DE] | %11
 [A,DE][A,CE][A,CE][A,CE] [A,E]2 [A,E][A,E] | %12
 [D,A,][D,A,][D,A,][D,A,] [A,,A,][A,,A,][A,,A,][A,,A,] | [E,G,]2 E,>E, E,D,[C,A,][B,,B,] | %14
 [A,,C][A,,A,][C,A,][E,G,D] [A,C]2 [A,E][C,A,] | [D,A,][D,A,][D,A,][D,A,] [D,D]2 [D,A,][D,A,] | %16
 [A,,A,][A,,A,][A,,A,][A,,A,] [E,A,E][E,G,D][E,B,D][E,B,D] |[M:7/4] [A,,A,]6 z2 z2 z4 |] %18
V:3
 x8 | x8 | x8 | x8 | x8 | x8 | x8 | x8 |[M:3/4] x6 |[M:1/4] x2 |[M:4/4] x8 | x8 | x8 | %13
 z2 G,>G, G,2 [Ec][Ed] | x8 | x8 | x8 |[M:7/4] x14 |] %18

